X:1
T:Title
%%score { 1 | ( 2 3 ) }
L:1/8
Q:1/4=108
M:4/4
K:Eb
V:1 treble nm="Grand Piano"
V:2 bass 
V:3 bass 
V:1
 G2 G2 c2 G2 | E2 [DF]2 [EG]4 | z4 c2 G2 |[M:5/4] E2 [DF]2 [EG]6 |[M:4/4] F2 G2 [FA]2 c2 | %5
w: Elizabeth~McE.~Shields * * *|||||
 B2 A2 G4 | F2 G2 [FA]2 c2 | B2 A2 G3 G | B3 B A2 F2 | E6 z2 |] %10
w: |||||
V:2
 z4 C,4- | C,2 B,,2 E,4 | G2 G2 C4- |[M:5/4] C2[K:bass] B,,2 E,6 |[M:4/4] D2 E2 z2 A2 | %5
 G2 F2 [E,E]4 | D2 E2 z2 A2 | G2 F2 [E,E]3 G, | B,3 B, A,2 F,2 | E,6 z2 |] %10
V:3
 x8 | x8 | x8 |[M:5/4] x2[K:bass] x8 |[M:4/4] z4 [B,,B,]4- | [B,,B,]4 z4 | z4 [B,,B,]4- | %7
 [B,,B,]4 z4 | x8 | x8 |] %10

